X: 135
T:Priest in his Boots
M:6/8
C:CRE #1
R:Jig
O:Irish
Z:Paul McGrattan's workshop 9/11/99
Z:Thomas Keays
K:D
P:A
efe e2g | fdf ecA |1 d3 fdd  | eAA Bcd :|2 d3 faf | gec d3 |]
P:B
a2f g2e | f2d ecA |1 d3 fdd | eAA Bcd :|2 d3 faf | gec d3 |]

